src/shared/assets/icons/ic-eye-off.svg

<svg width="24" height="24" viewBox="0 0 24 24" fill="none" xmlns="http://www.w3.org/2000/svg">
<path d="M17.1363 16.3834L14.7529 14C14.8761 13.8029 14.9715 13.572 15.0393 13.3072C15.107 13.0423 15.1409 12.7744 15.1409 12.5035C15.1409 11.6289 14.836 10.8868 14.2263 10.2771C13.6166 9.66744 12.8745 9.36259 12 9.36259C11.729 9.36259 11.4642 9.39338 11.2055 9.45497C10.9469 9.51655 10.7129 9.61509 10.5035 9.75058L8.47113 7.69977C8.90223 7.50269 9.45343 7.33025 10.1247 7.18245C10.796 7.03464 11.4519 6.96074 12.0924 6.96074C13.7552 6.96074 15.2887 7.41647 16.6928 8.32794C18.097 9.23941 19.1686 10.465 19.9076 12.0046C19.9446 12.0662 19.9692 12.1401 19.9815 12.2263C19.9938 12.3125 20 12.4049 20 12.5035C20 12.602 19.9938 12.6975 19.9815 12.7898C19.9692 12.8822 19.9446 12.9592 19.9076 13.0208C19.5874 13.6982 19.1932 14.3202 18.7252 14.8868C18.2571 15.4534 17.7275 15.9523 17.1363 16.3834ZM17.8014 20.1524L15.1039 17.5104C14.6728 17.6828 14.1863 17.8152 13.6443 17.9076C13.1024 18 12.5543 18.0462 12 18.0462C10.3002 18.0462 8.74211 17.5905 7.32564 16.679C5.90916 15.7675 4.83141 14.542 4.09238 13.0023C4.05543 12.9284 4.03079 12.8514 4.01848 12.7714C4.00616 12.6913 4 12.602 4 12.5035C4 12.4049 4.00924 12.3095 4.02771 12.2171C4.04619 12.1247 4.06774 12.0477 4.09238 11.9861C4.35104 11.4319 4.68052 10.893 5.08083 10.3695C5.48114 9.84604 5.95227 9.35027 6.49423 8.88222L4.55427 6.94226C4.44342 6.83141 4.38799 6.70208 4.38799 6.55427C4.38799 6.40647 4.44342 6.27714 4.55427 6.16628C4.66513 6.05543 4.79754 6 4.9515 6C5.10547 6 5.23788 6.05543 5.34873 6.16628L18.5774 19.3949C18.6759 19.4935 18.7252 19.6135 18.7252 19.7552C18.7252 19.8968 18.6759 20.0231 18.5774 20.1339C18.4788 20.2571 18.3526 20.3187 18.1986 20.3187C18.0447 20.3187 17.9122 20.2633 17.8014 20.1524ZM12 15.6443C12.1724 15.6443 12.3572 15.6289 12.5543 15.5982C12.7513 15.5674 12.9176 15.5212 13.0531 15.4596L9.04388 11.4503C8.98229 11.5982 8.9361 11.7644 8.90531 11.9492C8.87452 12.1339 8.85912 12.3187 8.85912 12.5035C8.85912 13.3903 9.16705 14.1355 9.78291 14.739C10.3988 15.3426 11.1378 15.6443 12 15.6443ZM13.94 13.1871L11.3164 10.5635C12.0801 10.2802 12.7883 10.428 13.4411 11.0069C14.0939 11.5858 14.2602 12.3125 13.94 13.1871Z" fill="currentColor"/>
</svg>

<svg xmlns="http://www.w3.org/2000/svg" fill="none" viewBox="0 0 24 24"><path fill="currentColor" d="M17.136 16.383 14.753 14q.185-.296.286-.693.102-.398.102-.803 0-1.312-.915-2.227T12 9.363q-.407 0-.794.092-.39.092-.702.296L8.47 7.7q.646-.296 1.654-.518a9 9 0 0 1 1.967-.221q2.495 0 4.6 1.367 2.108 1.367 3.216 3.677a.6.6 0 0 1 .073.221q.02.13.019.277 0 .148-.018.287a.6.6 0 0 1-.074.23q-.48 1.017-1.183 1.867a8.7 8.7 0 0 1-1.589 1.496m.665 3.77-2.697-2.643a7.2 7.2 0 0 1-1.46.398 10 10 0 0 1-1.644.138q-2.55 0-4.674-1.367a8.8 8.8 0 0 1-3.234-3.677.8.8 0 0 1-.074-.23 1.8 1.8 0 0 1 .01-.555q.027-.139.064-.23a8.8 8.8 0 0 1 .989-1.617q.6-.786 1.413-1.488l-1.94-1.94a.53.53 0 0 1-.166-.388q0-.222.166-.388A.54.54 0 0 1 4.951 6q.231 0 .398.166l13.228 13.229a.5.5 0 0 1 .148.36q0 .213-.148.379a.46.46 0 0 1-.378.185.54.54 0 0 1-.398-.167M12 15.643q.258 0 .554-.046t.5-.138l-4.01-4.01a2.3 2.3 0 0 0-.139.5q-.045.276-.046.554 0 1.33.924 2.235a3.06 3.06 0 0 0 2.217.905m1.94-2.457-2.624-2.623q1.146-.426 2.125.443t.499 2.18"/></svg>
